X: 212
T: Jieme guandeng
%%abc-version 2.0
%%abcx-abcm2ps-target-version 5.9.1 (29 Sep 2008)
%%abc-creator hum2abc beta
%%abcx-conversion-date 2013/10/02 07:52:29
%%abc-edited-by Helmut Schaffrath
%%humdrum-veritas 167986131
%%humdrum-veritas-data 3922077949
%%continueall 1
%%barnumbers 0
L: 1/8
M: 2/4
K: D
z f f e [I:setbarnb 1]| 
f ed2 | 
ff2e/ d/ | 
e d B d- | 
d f c B/ B/ | 
A FA2 | 
B d B F | 
A4 | 
d F F F | 
B d B d | 
B d F E | 
F4 | 
d d/ d/ B/ d/ B/ A/ | 
B dF2 | 
A F/ F/ E F | 
E F z f | 
e f B e | 
d2c/ e/ c/ B/ | 
A2B/ c/ B | 
A4 |]  



